X: 27440
T: Molloy's Favourite
R: reel
M: 4/4
K: Dmajor
d2Ad fdAF|GFEF GABc|d2Ad fdAF|GBEG FDDc|
dcde fdAF|GFEF GABc|d2Ad fdAF|GBEG FDD2||
dggf gbag|fgaf gfef|dggf gbag|faeg fddc|
dfaf gbag|fgaf gfeg|fdec dcBA|GABc dgfe||

